X:1
T:Gatwick, 77.77 D
T:Gatwick, 77.77 D
T:George Coles Stebbins, 1887
T:Public Domain Courtesy of the Cyber Hymnal™
C:George Coles Stebbins, 1887
Z:Public Domain
Z:Courtesy of the Cyber Hymnal™
%%score 1 2
L:1/8
Q:1/4=88
M:3/4
K:Ab
V:1 treble 
V:2 bass 
V:1
 [Ec]>[Fd] | [Ec]3 [DB] [Ec]>[DB] | [CA]4 [FA]>[DF] | [CE]3 [EA] [=DB]>[Dc] | [EB]4 [Ec]>[Fd] | %5
 [Ec]3 [EB] [Ec]>[GB] | [FA]4 [FA]>[DF] | [CE]3 [CA] [DB]>[Ec] | [CA]4 G>A | B3 =A B>A | %10
 c4 [GB]>[Ac] | [Bd]3 [=Ac] [Bd]>[=B=d] | [ce]4 [ce]>[Bd] | [Ac]3 [AB] [Gc]>[GB] | %14
 [FA]4 [FA]>[DF] | [CE]3 [CA] [DB]>[Ec] | [CA]4 x2 |] %17
V:2
 [A,,A,]>[A,,A,] | [A,,A,]3 [A,,A,] [E,G,]>[E,G,] | [A,,A,]4 [D,A,]>[D,A,] | %3
 [A,,A,]3 [C,A,] [B,,A,]>[B,,A,] | [E,G,]4 [A,,A,]>[A,,A,] | [A,,A,]3 [A,,A,] [E,G,]>[E,D] | %6
 [F,C]4 [D,D]>[D,A,] | [E,A,]3 [E,A,] [E,G,]>[E,G,] | [A,,A,]4 B,>C | D3 C D>=D | E4 z2 | z6 | %12
 z4 [A,E]>[A,E] | [A,E]3 [A,D] [E,E]>[E,D] | [F,C]4 [D,D]>[D,A,] | [E,A,]3 [E,A,] [E,G,]>[E,G,] | %16
 [A,,A,]6 |] %17

